icon-themes/sifr_svg/cmd/lc_macrosignature.svg

<svg viewBox="0 0 24 24" xmlns="http://www.w3.org/2000/svg"><path d="m5 2v12c-2.2 0-4 1.8-4 4s1.8 4 4 4h2 1v-2h-1-2c-1.1 0-2-.9-2-2s.9-2 2-2h2v-12h10 2c1.1 0 2 .9 2 2s-.9 2-2 2h-2v.1c1.16.24 2.16.9 2.88 1.79 1.79-.39 3.12-1.99 3.12-3.89 0-2.2-1.8-4-4-4h-2zm11 7a4 4 0 0 0 -4 4v3h-3v7h14v-7h-3v-3a4 4 0 0 0 -4-4zm0 2a2 2 0 0 1 2 2v3h-4v-3a2 2 0 0 1 2-2z" fill="#555753"/></svg>

<svg viewBox="0 0 24 24" xmlns="http://www.w3.org/2000/svg">
  <path
     style="fill:#555753"
     d="M 5 2 L 5 14 C 2.8 14 1 15.8 1 18 C 1 20.2 2.8 22 5 22 L 7 22 L 8 22 L 8 20 L 7 20 L 5 20 C 3.9 20 3 19.1 3 18 C 3 16.9 3.9 16 5 16 L 7 16 L 7 4 L 17 4 L 19 4 C 20.1 4 21 4.9 21 6 C 21 7.1 20.1 8 19 8 L 17 8 L 17 8.1 C 18.16 8.34 19.16 9 19.88 9.89 C 21.67 9.5 23 7.9 23 6 C 23 3.8 21.2 2 19 2 L 17 2 L 5 2 z M 16 9 A 4 4 0 0 0 12 13 L 12 16 L 9 16 L 9 23 L 23 23 L 23 16 L 20 16 L 20 13 A 4 4 0 0 0 16 9 z M 16 11 A 2 2 0 0 1 18 13 L 18 16 L 14 16 L 14 13 A 2 2 0 0 1 16 11 z "
     />
</svg>
